X: 140
T:Muiñeira de Poio
M:6/8
L:1/8
Q:200
C:Trad
R:Muiñeira
K:C
G2 E F2{B}A |G2E {G}EDE | F2{G} D {G}DCD | E2 {B,}C- C3 
G2 E F2{B}A |G2E {G}EDE | F2{G} D {G}DED | {B,}C6 :|
|: F2{G} D {G}DCD | E2 C {G}CB,C | DEF {c}FED | E {B,}C2-C3 |
F2{G} D {G}DCD | E2{F} C {G}CB,C| DEF {c}"~"FED| {B,}C6 :||

